src/images_karasa_jaga_svg/cmd/sc_starshapes.signet.svg

<svg height="16" viewBox="0 0 16 16" width="16" xmlns="http://www.w3.org/2000/svg" xmlns:xlink="http://www.w3.org/1999/xlink"><linearGradient id="a"><stop offset="0" stop-color="#fff"/><stop offset=".59375" stop-color="#fff"/><stop offset=".84375" stop-color="#f1f1f1"/><stop offset=".90625" stop-color="#eaeaea"/><stop offset="1" stop-color="#dfdfdf"/></linearGradient><linearGradient id="b"><stop offset="0" stop-color="#7c9fcf"/><stop offset=".5" stop-color="#7c9ece"/><stop offset="1" stop-color="#7b9dcf"/></linearGradient><linearGradient id="c" gradientUnits="userSpaceOnUse" x1="64" x2="64" xlink:href="#b" y1="128" y2="0"/><linearGradient id="d" gradientUnits="userSpaceOnUse" x1="5.518158" x2="15.391344" xlink:href="#b" y1="11.867131" y2="11.867131"/><linearGradient id="e" gradientUnits="userSpaceOnUse" x1="96" x2="96" xlink:href="#a" y1="128" y2="0"/><linearGradient id="f" gradientUnits="userSpaceOnUse" x1="48" x2="48" xlink:href="#a" y1="128" y2="0"/><g transform="matrix(.125 0 0 .125 0 -.111913)"><path d="m36.853516.72851562c-9.158162.0109187-17.891461 5.94673218-21.740235 14.19140638-1.979554.892351-3.873803 1.964193-5.5410154 3.355469-.00587.0045-.011725.0091-.017578.01367-8.479148 7.115941-10.53340696 20.466313-5.3476564 30.101564-1.7634454 3.657567-2.7115523 7.714065-2.4785156 11.769531l.00195.0059c.6440602 11.050674 10.1237314 20.671254 20.9492224 22.265585 1.880062 3.597638 4.564373 6.780828 7.955078 9.015625l.0078.0039c9.248885 6.08189 22.628031 4.221617 30.371094-3.509766 4.009036.640803 8.166364.385408 11.984375-1l.0059-.002c10.403133-3.78631 16.901172-15.629902 15.322237-26.458931 2.906848-2.831634 5.184269-6.315413 6.353516-10.203125l.002-.0078c3.174966-10.60454-2.443272-22.888548-12.07036-28.089856-.535255-4.024044-1.971288-7.932941-4.392578-11.19336l-.0059-.0059c-6.609943-8.8794038-19.817178-11.70774787-29.738241-7.0917561-3.548142-1.9735557-7.541768-3.15607896-11.603515-3.16015628-.0059-.00000664-.01172-.00000664-.01758 0zm11.146484 28.52148438a18.75 18.75 0 0 1 18.75 18.75 18.75 18.75 0 0 1 -18.75 18.75 18.75 18.75 0 0 1 -18.75-18.75 18.75 18.75 0 0 1 18.75-18.75zm32.232422 29.269531c-.300978.814282-.675779 1.861648-.845703 2.388672-.331497.646653-1.128439 2.332914-1.41211 2.986328-1.817526-.446229 1.145998-3.289783 2.257813-5.375z" fill="url(#c)"/><path d="m36.863614 8.4746702a16.179616 16.179616 0 0 0 -15.720473 12.4339908 16.179616 16.179616 0 0 0 -6.608288 3.314366 16.179616 16.179616 0 0 0 -1.99271 22.795339 16.179616 16.179616 0 0 0 .966614 1.03725 16.179616 16.179616 0 0 0 -4.0467634 11.658841 16.179616 16.179616 0 0 0 17.0923214 15.211142 16.179616 16.179616 0 0 0 1.409025-.156144 16.179616 16.179616 0 0 0 6.935449 10.20892 16.179616 16.179616 0 0 0 22.408692-4.62859 16.179616 16.179616 0 0 0 .717524-1.223136 16.179616 16.179616 0 0 0 12.329893.533497 16.179616 16.179616 0 0 0 9.669847-20.73757 16.179616 16.179616 0 0 0 -.553943-1.306785 16.179616 16.179616 0 0 0 7.79053-9.56947 16.179616 16.179616 0 0 0 -10.859525-20.140869 16.179616 16.179616 0 0 0 -1.377425-.336457 16.179616 16.179616 0 0 0 -3.024382-11.963695 16.179616 16.179616 0 0 0 -22.641053-3.316226 16.179616 16.179616 0 0 0 -1.091157.903411 16.179616 16.179616 0 0 0 -11.404176-4.7178148zm11.491543 13.6868688a25.891771 25.891771 0 0 1 25.890359 25.892219 25.891771 25.891771 0 0 1 -25.890359 25.890357 25.891771 25.891771 0 0 1 -25.892218-25.890357 25.891771 25.891771 0 0 1 25.892218-25.892219z" fill="url(#f)"/><g fill-rule="evenodd"><path d="m8.1542969 7.6230469c-.12916-.0056913-.2537052.0121602-.3417969.0449219-.2681141.0997121-.3348129.2069021-.3867188.2558593-.0519058.0489573-.0706033.0580469-.03125.0332031l-.4179687.2636719a.76605815.76605815 0 0 0 -.3554687.5917969c-.1365547 1.834262-.2642661 3.493984-.5058594 5.28125-.050422.09642-.1644458.3126-.2890625.539062-.0832605.077475-.169716.180584-.2382813.369141-.0118487.032583-.0233607.062423-.0351562.103516-.011795.041093-.0371908.053571-.0332032.253906.0019938.100167-.0344614.379256.3457032.628906.0097032.006372.0212809.005913.03125.011719h.7871094c.0048995-.00312.0188991-.006827.0234374-.009766.2053837-.13298.1834598-.163507.2089844-.197265.0288648-.038176.0339265-.055448.0527344-.083985.0315416.001825.4106572-.150811.7871094-.21875.4101807-.074025.7714844-.10742.7714844-.107422a.76605815.76605815 0 0 0 .6914062-.710937c.0604976-.899481.0832998-1.783061.0449219-2.664063.5009162.545284.9773451 1.055995 1.2460941 1.449219l-.025391-.039062c.128775.214626.329462.315285.455078.353515s.207438.038077.273438.03711c.131999-.001938.209396-.019669.291015-.039063.16324-.038787.32245-.094454.503906-.162109.362914-.135308.80119-.324625 1.236329-.519531.870278-.389813 1.716797-.802735 1.716797-.802735a.76605815.76605815 0 0 0 -.220704-1.445312c-2.407829-.366428-3.882875-1.86727-6.2167965-3.1250002-.1076801-.0580282-.2399808-.0861058-.3691406-.0917969z" fill="url(#d)" stroke-width=".125" transform="matrix(8 0 0 8 0 .895303)"/><path d="m59.080341 71.847988c-1.119046 15.031515-2.137904 28.721692-4.197429 43.653262 0 0-5.766115 11.19643-4.422938 7.5027 1.343177-3.69374 17.18312-5.15214 17.18312-5.15214 1.023059-15.21089.860828-29.349432-3.055898-43.792353 4.857367 11.069255 18.356131 21.974279 24.546731 31.032163 1.007383 1.67898 27.870923-11.417006 27.870923-11.417006-21.290233-3.239982-33.991311-16.108768-51.715365-25.660111-.886338-.477639-1.694221.983227-2.862162 1.720545z" fill="url(#e)"/></g></g></svg>

<?xml version="1.0" encoding="UTF-8" standalone="no"?>
<!-- Created with Inkscape (http://www.inkscape.org/) -->

<svg
   xmlns:dc="http://purl.org/dc/elements/1.1/"
   xmlns:cc="http://creativecommons.org/ns#"
   xmlns:rdf="http://www.w3.org/1999/02/22-rdf-syntax-ns#"
   xmlns:svg="http://www.w3.org/2000/svg"
   xmlns="http://www.w3.org/2000/svg"
   xmlns:xlink="http://www.w3.org/1999/xlink"
   xmlns:sodipodi="http://sodipodi.sourceforge.net/DTD/sodipodi-0.dtd"
   xmlns:inkscape="http://www.inkscape.org/namespaces/inkscape"
   version="1.1"
   id="svg2"
   width="128"
   height="128"
   viewBox="0 0 128 128"
   sodipodi:docname="sc_starshapes.signet.svg"
   inkscape:export-filename="/home/rizmut/Dokumen/Rizmut/Github/libreoffice-style-karasa-jaga/build/images_karasa_jaga/cmd/sc_starshapes.signet.png"
   inkscape:export-xdpi="12"
   inkscape:export-ydpi="12"
   inkscape:version="0.92.3 (unknown)">
  <metadata
     id="metadata8">
    <rdf:RDF>
      <cc:Work
         rdf:about="">
        <dc:format>image/svg+xml</dc:format>
        <dc:type
           rdf:resource="http://purl.org/dc/dcmitype/StillImage" />
        <dc:title></dc:title>
      </cc:Work>
    </rdf:RDF>
  </metadata>
  <defs
     id="defs6">
    <linearGradient
       id="linearGradient3369">
      <stop
         id="stop3372"
         offset="0"
         style="stop-color:#ffffff;stop-opacity:1;" />
      <stop
         style="stop-color:#ffffff;stop-opacity:1;"
         offset="0.59375"
         id="stop3374" />
      <stop
         style="stop-color:#f1f1f1;stop-opacity:1;"
         offset="0.84375"
         id="stop3376" />
      <stop
         id="stop3378"
         offset="0.90625"
         style="stop-color:#eaeaea;stop-opacity:1;" />
      <stop
         id="stop3384"
         offset="1"
         style="stop-color:#dfdfdf;stop-opacity:1;" />
    </linearGradient>
    <linearGradient
       id="linearGradient7422">
      <stop
         style="stop-color:#7c9fcf;stop-opacity:1"
         offset="0"
         id="stop7424" />
      <stop
         id="stop5348"
         offset="0.5"
         style="stop-color:#7c9ece;stop-opacity:1" />
      <stop
         id="stop7426"
         offset="1"
         style="stop-color:#7b9dcf;stop-opacity:1" />
    </linearGradient>
    <linearGradient
       inkscape:collect="always"
       xlink:href="#linearGradient7422"
       id="linearGradient1008"
       x1="64"
       y1="128"
       x2="64"
       y2="0"
       gradientUnits="userSpaceOnUse" />
    <linearGradient
       inkscape:collect="always"
       xlink:href="#linearGradient7422"
       id="linearGradient1010"
       x1="44.145264"
       y1="95.832352"
       x2="123.13075"
       y2="95.832352"
       gradientUnits="userSpaceOnUse" />
    <linearGradient
       inkscape:collect="always"
       xlink:href="#linearGradient3369"
       id="linearGradient1018"
       x1="96"
       y1="128"
       x2="96"
       y2="0"
       gradientUnits="userSpaceOnUse" />
    <linearGradient
       inkscape:collect="always"
       xlink:href="#linearGradient3369"
       id="linearGradient1020"
       x1="48"
       y1="128"
       x2="48"
       y2="0"
       gradientUnits="userSpaceOnUse" />
  </defs>
  <sodipodi:namedview
     pagecolor="#ffffff"
     bordercolor="#666666"
     borderopacity="1"
     objecttolerance="10"
     gridtolerance="10"
     guidetolerance="10"
     inkscape:pageopacity="0"
     inkscape:pageshadow="2"
     inkscape:window-width="1366"
     inkscape:window-height="706"
     id="namedview4"
     showgrid="true"
     inkscape:snap-page="true"
     inkscape:snap-global="true"
     inkscape:zoom="2"
     inkscape:cx="46.92578"
     inkscape:cy="22.377355"
     inkscape:window-x="0"
     inkscape:window-y="0"
     inkscape:window-maximized="1"
     inkscape:current-layer="svg2"
     inkscape:snap-smooth-nodes="true"
     showguides="false"
     inkscape:guide-bbox="true">
    <inkscape:grid
       type="xygrid"
       id="grid27"
       spacingx="8"
       spacingy="8"
       empspacing="2" />
    <sodipodi:guide
       position="51.972346,56"
       orientation="0,1"
       id="guide841"
       inkscape:locked="false" />
  </sodipodi:namedview>
  <g
     id="g1045">
    <path
       id="path974"
       d="M 36.853516 0.72851562 C 27.695354 0.73943432 18.962055 6.6752478 15.113281 14.919922 C 13.133727 15.812273 11.239478 16.884115 9.5722656 18.275391 C 9.5663956 18.279891 9.5605405 18.284493 9.5546875 18.289062 C 1.0755396 25.405002 -0.97871936 38.755374 4.2070312 48.390625 C 2.4435858 52.048192 1.4954789 56.10469 1.7285156 60.160156 L 1.7304688 60.166016 C 2.3745258 71.21673 11.854197 80.83731 22.679688 82.431641 C 24.55975 86.029279 27.244061 89.212469 30.634766 91.447266 L 30.642578 91.451172 C 39.891463 97.533062 53.270609 95.672789 61.013672 87.941406 C 65.022708 88.582209 69.180036 88.326814 72.998047 86.941406 L 73.003906 86.939453 C 83.407068 83.15309 89.905107 71.309498 88.326172 60.480469 C 91.23302 57.648835 93.510441 54.165056 94.679688 50.277344 L 94.681641 50.269531 C 97.856654 39.665004 92.238416 27.380996 82.611328 22.179688 C 82.076073 18.155644 80.64004 14.246747 78.21875 10.986328 L 78.212891 10.980469 C 71.602907 2.1010242 58.395672 -0.72731987 48.474609 3.8886719 C 44.926467 1.9151162 40.932841 0.73259294 36.871094 0.72851562 C 36.865194 0.72850898 36.859376 0.72850898 36.853516 0.72851562 z M 48 29.25 A 18.75 18.75 0 0 1 66.75 48 A 18.75 18.75 0 0 1 48 66.75 A 18.75 18.75 0 0 1 29.25 48 A 18.75 18.75 0 0 1 48 29.25 z M 80.232422 58.519531 C 79.931444 59.333813 79.556643 60.381179 79.386719 60.908203 C 79.055222 61.554856 78.25828 63.241117 77.974609 63.894531 C 76.157083 63.448302 79.120607 60.604748 80.232422 58.519531 z "
       style="opacity:1;fill:url(#linearGradient1008);fill-opacity:1;stroke:none;stroke-width:3.33109736;stroke-linecap:round;stroke-linejoin:bevel;stroke-miterlimit:4;stroke-dasharray:none;stroke-dashoffset:0;stroke-opacity:0.72941176" />
    <path
       id="path1518"
       d="m 36.863614,8.4746702 a 16.179616,16.179616 0 0 0 -15.720473,12.4339908 16.179616,16.179616 0 0 0 -6.608288,3.314366 16.179616,16.179616 0 0 0 -1.99271,22.795339 16.179616,16.179616 0 0 0 0.966614,1.03725 16.179616,16.179616 0 0 0 -4.0467634,11.658841 16.179616,16.179616 0 0 0 17.0923214,15.211142 16.179616,16.179616 0 0 0 1.409025,-0.156144 16.179616,16.179616 0 0 0 6.935449,10.20892 16.179616,16.179616 0 0 0 22.408692,-4.62859 16.179616,16.179616 0 0 0 0.717524,-1.223136 16.179616,16.179616 0 0 0 12.329893,0.533497 16.179616,16.179616 0 0 0 9.669847,-20.73757 16.179616,16.179616 0 0 0 -0.553943,-1.306785 16.179616,16.179616 0 0 0 7.79053,-9.56947 A 16.179616,16.179616 0 0 0 76.401807,27.905452 16.179616,16.179616 0 0 0 75.024382,27.568995 16.179616,16.179616 0 0 0 72,15.6053 16.179616,16.179616 0 0 0 49.358947,12.289074 16.179616,16.179616 0 0 0 48.26779,13.192485 16.179616,16.179616 0 0 0 36.863614,8.4746702 Z M 48.355157,22.161539 A 25.891771,25.891771 0 0 1 74.245516,48.053758 25.891771,25.891771 0 0 1 48.355157,73.944115 25.891771,25.891771 0 0 1 22.462939,48.053758 25.891771,25.891771 0 0 1 48.355157,22.161539 Z"
       style="opacity:1;fill:url(#linearGradient1020);fill-opacity:1;stroke:none;stroke-width:3.33109736;stroke-linecap:round;stroke-linejoin:bevel;stroke-miterlimit:4;stroke-dasharray:none;stroke-dashoffset:0;stroke-opacity:0.72941176"
       inkscape:connector-curvature="0" />
    <path
       d="m 65.228516,61.882812 c -1.03328,-0.04553 -2.027688,0.08947 -2.732422,0.351563 -2.144913,0.797697 -2.672644,1.65717 -3.087891,2.048828 -0.415247,0.391658 -0.56678,0.468281 -0.251953,0.269531 l -3.347656,2.113282 a 6.1284652,6.1284652 0 0 0 -2.839844,4.726562 c -1.092437,14.674093 -2.108269,27.949917 -4.041016,42.248042 -0.403376,0.77136 -1.325331,2.51057 -2.322265,4.32227 -0.666084,0.6198 -1.355775,1.43881 -1.904297,2.94727 -0.09479,0.26066 -0.179074,0.50133 -0.273438,0.83007 -0.09436,0.32875 -0.311197,0.42662 -0.279296,2.0293 0.01595,0.80134 -0.265927,3.03991 2.77539,5.03711 1.520659,0.9986 3.481867,1.1145 4.609375,0.88281 1.127508,-0.23169 1.70642,-0.60123 2.117188,-0.86718 1.643069,-1.06384 1.473537,-1.31001 1.677734,-1.58008 0.230918,-0.30541 0.2636,-0.43968 0.414063,-0.66797 0.252333,0.0146 3.291117,-1.21235 6.302734,-1.75586 3.281446,-0.5922 6.166016,-0.86523 6.166016,-0.86524 a 6.1284652,6.1284652 0 0 0 5.544921,-5.68945 c 0.483981,-7.19585 0.662492,-14.26253 0.355469,-21.310545 4.00733,4.362265 7.814857,8.449915 9.964844,11.595705 l -0.195313,-0.30469 c 1.030198,1.71701 2.633746,2.51838 3.638672,2.82422 1.004927,0.30584 1.655596,0.30657 2.183594,0.29883 1.055996,-0.0155 1.682979,-0.16712 2.335937,-0.32227 1.305917,-0.3103 2.56397,-0.74587 4.015626,-1.28711 2.90331,-1.08246 6.415372,-2.59309 9.896482,-4.15234 6.96223,-3.1185 13.73828,-6.423829 13.73828,-6.423829 A 6.1284652,6.1284652 0 0 0 117.92578,87.615234 C 98.663142,84.683815 86.866681,72.680983 68.195312,62.619141 c -0.861441,-0.464225 -1.933517,-0.6908 -2.966796,-0.736329 z"
       id="path982"
       style="fill:url(#linearGradient1010);fill-opacity:1.0;fill-rule:evenodd;stroke:none;stroke-width:3.32419348;stroke-linecap:butt;stroke-linejoin:miter;stroke-miterlimit:4;stroke-dasharray:none;stroke-opacity:0.72941176"
       inkscape:original="M 64.632812 67.978516 C 63.976924 68.222442 63.30369 69.181387 62.427734 69.734375 L 59.080078 71.847656 C 57.961032 86.879171 56.942338 100.57038 54.882812 115.50195 C 54.882812 115.50195 52.83529 119.44528 51.466797 121.85547 C 55.205277 119.01145 67.642578 117.85156 67.642578 117.85156 C 68.665637 102.64067 68.504617 88.501515 64.587891 74.058594 C 69.445258 85.127849 82.944166 96.033913 89.134766 105.0918 C 90.142149 106.77078 117.00391 93.673828 117.00391 93.673828 C 95.713673 90.433846 83.013116 77.565015 65.289062 68.013672 C 65.067478 67.894262 64.851442 67.897207 64.632812 67.978516 z M 51.466797 121.85547 C 50.995252 122.21419 50.61138 122.59019 50.460938 123.00391 C 49.937865 124.44235 50.593956 123.39271 51.466797 121.85547 z "
       inkscape:radius="6.1278524"
       sodipodi:type="inkscape:offset" />
    <path
       sodipodi:nodetypes="ccsccccssc"
       inkscape:connector-curvature="0"
       id="path1536"
       d="m 59.080341,71.847988 c -1.119046,15.031515 -2.137904,28.721692 -4.197429,43.653262 0,0 -5.766115,11.19643 -4.422938,7.5027 1.343177,-3.69374 17.18312,-5.15214 17.18312,-5.15214 1.023059,-15.21089 0.860828,-29.349432 -3.055898,-43.792353 4.857367,11.069255 18.356131,21.974279 24.546731,31.032163 C 90.14131,106.7706 117.00485,93.674614 117.00485,93.674614 95.714617,90.434632 83.013539,77.565846 65.289485,68.014503 64.403147,67.536864 63.595264,68.99773 62.427323,69.735048 Z"
       style="fill:url(#linearGradient1018);fill-opacity:1;fill-rule:evenodd;stroke:none;stroke-width:3.32419348;stroke-linecap:butt;stroke-linejoin:miter;stroke-miterlimit:4;stroke-dasharray:none;stroke-opacity:0.72941176" />
  </g>
</svg>
